assets/arrow-to-up-fill.svg

<svg xmlns="http://www.w3.org/2000/svg" fill="none" viewBox="0 0 28 28">
  <path fill="#2A2238" fill-rule="evenodd" d="M14 0c7.732 0 14 6.26801 14 14 0 7.732-6.268 14-14 14-7.73199 0-14-6.268-14-14C0 6.26801 6.26801 0 14 0Zm.6062 8.05 6.5818 11.4c.2694.4667-.0673 1.05-.6062 1.05H7.41821c-.53886 0-.87565-.5833-.60622-1.05l6.58181-11.4c.0838-.14514.2067-.24514.3443-.3H8c-.41421 0-.75-.33579-.75-.75s.33579-.75.75-.75h13c.4142 0 .75.33579.75.75s-.3358.75-.75.75h-6.7381c.1376.05486.2605.15486.3443.3Z" clip-rule="evenodd"/>
</svg>

<svg width="28" height="28" viewBox="0 0 28 28" fill="none" xmlns="http://www.w3.org/2000/svg">
<path fill-rule="evenodd" clip-rule="evenodd" d="M14 0C21.732 0 28 6.26801 28 14C28 21.732 21.732 28 14 28C6.26801 28 0 21.732 0 14C0 6.26801 6.26801 0 14 0ZM14.6062 8.05L21.188 19.45C21.4574 19.9167 21.1207 20.5 20.5818 20.5H7.41821C6.87935 20.5 6.54256 19.9167 6.81199 19.45L13.3938 8.05C13.4776 7.90486 13.6005 7.80486 13.7381 7.75H8C7.58579 7.75 7.25 7.41421 7.25 7C7.25 6.58579 7.58579 6.25 8 6.25H21C21.4142 6.25 21.75 6.58579 21.75 7C21.75 7.41421 21.4142 7.75 21 7.75H14.2619C14.3995 7.80486 14.5224 7.90486 14.6062 8.05Z" fill="#2A2238"/>
</svg>
